!!!OTL: Der Leichtsinn (289), S. 603
!!!id: T0479
**kern
*clefG2
*k[f#]
*G:
{8.d
16g
=1
4g
4f#
8.e
16e
=2
8e
8d
4d}
=3
{8.d
16b
=4
4b
4a
8e
8f#
=5
8a
8g
4g}
=6
{8.d
16g
=7
8g
8f#
4f#
8.f#
16f#
=8
8e
8d
4d}
=9
{8d
8b
=10
8b
8a
4a
8e
8f#
=11
4g}
4r
=12
{8.d
16g
=13
8g
8f#
4f#
8.e
16e
=14
8e
8d
4d}
=15
{8.d
16b
=16
8b
8a
4a
8e
8f#
=17
4g}
4r
=18
{8.d
16g
=19
8g
8f#
4f#
8.e
16e
=20
8e
8d
4d}
=21
{8.d
16b
=22
8b
8a
4a
8e
8f#
=23
4g}
4r
==
*-
!!!minrhy: 16
!!!meters: 3/4 ]  ZZ[8
!!!cut: Der Leichtsinn (289), S. 603
!!!reg: Luxemburg
!!!trd: Singendes Volk, Esch-Alzette, 1937 posth.
!!!rhy1: X_.X  X__X__X_.X  X_X_X__
!!!rhy2: X_.X  X__X__X_X_  X_X_X__
!!!key: T0479  16  G 3/4 ]  ZZ[8
!!!mod: SECHSTONSKALA DUR ?]  AMBITUS[6
!!!kad: -51-51-51-51
!!!akz: 1-6_32_1-6_31_1-6_31_1-6_31_
!!!fot: 'a__b__aw_bw_av_bw_av_bw_
!!!for: 'a__b__c__d__c__dv_c__dv_
!!!fok: '^__~a_^__~a_^__~a_^__~a_
!! PHRAS[AUFTAKTIG]
!!!fkt: ???
!!!bem: Tadler, hhh Nikolaus Schroeder, 26.2.1933
!! THILL; Mathias
!! PR[49] 2K[4] 2G[11] 3K[2] 3G[2] 4A[4] 4Ü[0] 5A[0] 6K[0] 6G[0]
!! 7K[4] 7G[0] 8A[0] MEHR[0] SI[26] ABS[53] SR[15] SP[11]
!! ST[16] 2k[4] 2g[11] 3k[0] 3g[0] 4d[8] 4ü[0] 5d[0] 6k[0] 6g[0]
!! 7k[0] 7g[0] 8d[2] mehr[0] si[25] dm[+1] sr[15] sp[9]
!! 1F[10] 2F[71] 3F[8] 4F[0] LF[0] 2P[10] 3P[0] 4P[0] TRI[0] DF[4] AB[59]
!! TF[0] U3K[0] U3[0] U4[0] U4Ü[0] U5[33] U6K[0] U6[7] U7K[0] U7[4]
!! N1[15] N2K[0] N2[11] N3K[0] N3[13] N4[15] N4Ü[0] N5[2] N6K[0] N6[0]
!!!n7k: 0] N7[0] O1[0] O2K[0] O2[0] O3K[0] O3[0] HÖ[0
